images/addsectionimage/desktop-onboarding-image2-rtl.svg

<svg xmlns="http://www.w3.org/2000/svg" width="360" height="216" fill="none" viewBox="0 0 360 216">
	<g clip-path="url(#clip0_547_45930)">
		<mask id="mask0_547_45930" width="360" height="216" x="0" y="0" maskUnits="userSpaceOnUse" style="mask-type:luminance">
			<path fill="#fff" d="M0 0h360v216H0V0Z"/>
		</mask>
		<g mask="url(#mask0_547_45930)">
			<mask id="mask1_547_45930" width="360" height="216" x="0" y="0" maskUnits="userSpaceOnUse" style="mask-type:luminance">
				<path fill="#fff" d="M360 0H0v216h360V0Z"/>
			</mask>
			<g mask="url(#mask1_547_45930)">
				<path fill="#A2A9B1" d="M268 170H122v6h146v-6Z"/>
				<g filter="url(#filter0_d_547_45930)">
					<path fill="#EAECF0" d="M246-16H26c-2.209 0-4 2.239-4 5v230c0 2.761 1.791 5 4 5h220c2.209 0 4-2.239 4-5V-11c0-2.761-1.791-5-4-5Z"/>
					<path stroke="#A2A9B1" stroke-linecap="square" stroke-width="2" d="M246-14H26c-2.761 0-5 2.758-5 6.16v226.68c0 3.402 2.239 6.16 5 6.16h220c2.761 0 5-2.758 5-6.16V-7.84c0-3.402-2.239-6.16-5-6.16Z"/>
				</g>
				<path fill="#A2A9B1" d="M32.754 114h206v6h-206v-6Zm0 32h206v6h-206v-6Zm80 12h126v6h-126v-6Zm-80 0h77v6h-77v-6Zm150 12h56v6h-56v-6Zm-32-38h88v8h-88v-8Zm17-30h71v6h-71v-6Zm-135 0h129v6h-129v-6Zm0-80h129v6h-129v-6Zm0 184h129v6h-129v-6Zm133-184h73v6h-73v-6Zm0 184h73v6h-73v-6Zm-133-116h206v6h-206v-6Zm0-80h206v6h-206v-6Zm0 184h206v6h-206v-6Zm0-116h206v6h-206v-6Zm0-80h206v6h-206v-6Zm0 184h206v6h-206v-6Zm0-116h56v6h-56v-6Zm0 104h56v6h-56v-6Zm60-104h146v6h-146v-6Zm81.596-21H239v14h-64.65V45Z"/>
				<g filter="url(#filter1_d_547_45930)">
					<path fill="#fff" d="M84 117h108v90H84v-90Z"/>
					<path fill="#fff" d="M84 183h108v24H84v-24Z"/>
					<path fill="#EAECF0" stroke="#A2A9B1" stroke-linecap="square" d="M172 189h12a2 2 0 0 1 2 2v8a2 2 0 0 1-2 2h-12a2 2 0 0 1-2-2v-8a2 2 0 0 1 2-2Z"/>
					<path fill="#54595D" fill-rule="evenodd" d="M176.632 196.668 174.964 195l-.564.564 2.232 2.236 4.8-4.8-.564-.568-4.236 4.236Z" clip-rule="evenodd"/>
					<path fill="#EAECF0" stroke="#A2A9B1" stroke-linecap="square" d="M92 189h12a2 2 0 0 1 2 2v8a2 2 0 0 1-2 2H92a2 2 0 0 1-2-2v-8a2 2 0 0 1 2-2Z"/>
					<path fill="#54595D" fill-rule="evenodd" d="m99.5 191.4.6.6-3 3 3 3-.6.6-3.6-3.6 3.6-3.6Z" clip-rule="evenodd"/>
					<path fill="#EAECF0" stroke="#A2A9B1" stroke-linecap="square" d="M150 189h12a2 2 0 0 1 2 2v8a2 2 0 0 1-2 2h-12a2 2 0 0 1-2-2v-8a2 2 0 0 1 2-2Z"/>
					<path fill="#54595D" fill-rule="evenodd" d="m155.435 194.999-2.546-2.545.566-.566 2.546 2.546 2.544-2.545.566.565-2.545 2.545 2.546 2.546-.566.565-2.545-2.545-2.547 2.546-.565-.565 2.546-2.547Z" clip-rule="evenodd"/>
					<path fill="#fff" d="M84 117h108v70H84v-70Z"/>
					<path fill="#A2A9B1" d="M90 157h45v4H90v-4Zm0-20h96v4H90v-4Zm0 27h45v4H90v-4Zm9-19h36v8H99v-8Zm10 30c0-.796.316-1.559.879-2.121a2.996 2.996 0 0 1 4.242 0 2.996 2.996 0 0 1 0 4.242 2.996 2.996 0 0 1-4.242 0A2.996 2.996 0 0 1 109 175Zm-19-2h16v4H90v-4Z"/>
					<path fill="#EAF3FF" d="M192 117H84v14h108v-14Z"/>
					<path fill="#EAECF0" d="M138 145h48v32h-48v-32Z"/>
					<path fill="#A2A9B1" fill-rule="evenodd" d="M155.6 156.6h12.8a1.6 1.6 0 0 1 1.6 1.6v9.6a1.6 1.6 0 0 1-1.6 1.6h-12.8a1.6 1.6 0 0 1-1.6-1.6v-9.6a1.6 1.6 0 0 1 1.6-1.6Zm12.936 10.4-3.272-4.2-2.336 2.808-3.264-4.208-4.2 5.6h13.072Z" clip-rule="evenodd"/>
					<path fill="#54595D" fill-rule="evenodd" d="M181.25 121.5h3.252a.997.997 0 0 1 .998.998V126H182v1h2.502a1.01 1.01 0 0 1 .707.293 1.01 1.01 0 0 1 .291.707v1h-9v-1c0-.553.447-1 .998-1H180v-1h-3.5v-3.502a1 1 0 0 1 .998-.998h3.252v-1.043a.75.75 0 1 1 .5 0v1.043Zm-2 3c.199 0 .39-.079.53-.22a.747.747 0 0 0 0-1.06.747.747 0 0 0-1.06 0 .747.747 0 0 0 0 1.06c.14.141.331.22.53.22Zm3.5 0c.199 0 .39-.079.53-.22a.747.747 0 0 0 0-1.06.747.747 0 0 0-1.06 0 .747.747 0 0 0 0 1.06c.14.141.331.22.53.22Z" clip-rule="evenodd"/>
					<path stroke="#A2A9B1" stroke-linecap="square" d="M83.5 116.5h109v91h-109v-91Z"/>
				</g>
				<path fill="#FC3" stroke="#FC3" stroke-linecap="square" d="M172 117.341h-.5v65h109v-65H172Z" opacity=".5"/>
				<path fill="#FC3" fill-opacity=".5" stroke="#FC3" stroke-width="2" d="m180.5 192 163.524-.976a4 4 0 0 0 3.976-4V76a3.997 3.997 0 0 0-4-4H180l-97 45v65l97.5 10Z"/>
				<path fill="#fff" d="M184 74h158a3.998 3.998 0 0 1 4 4v107a3.995 3.995 0 0 1-1.172 2.828A3.995 3.995 0 0 1 342 189H184a3.995 3.995 0 0 1-2.828-1.172A3.995 3.995 0 0 1 180 185V78a3.997 3.997 0 0 1 4-4Z"/>
				<path fill="#A2A9B1" d="M191 139h67.5v6H191v-6Zm0-33h144v6H191v-6Zm0 43.5h67.5v6H191v-6Zm13.5-28.5h54v12h-54v-12Zm15 48a4.496 4.496 0 0 1 6.222-4.157A4.496 4.496 0 0 1 228.5 169a4.5 4.5 0 0 1-9 0Zm-28.5-3h24v6h-24v-6Z"/>
				<path fill="#EAF3FF" d="M344 76H182v21h162V76Z"/>
				<path fill="#EAECF0" d="M263 121h72v54h-72v-54Z"/>
				<path fill="#A2A9B1" fill-rule="evenodd" d="M287 136h24c.796 0 1.559.316 2.121.879.563.562.879 1.325.879 2.121v18c0 .796-.316 1.559-.879 2.121A2.996 2.996 0 0 1 311 160h-24a2.996 2.996 0 0 1-2.121-.879A2.996 2.996 0 0 1 284 157v-18c0-.796.316-1.559.879-2.121A2.996 2.996 0 0 1 287 136Zm24.255 19.5-6.135-7.875-4.38 5.265-6.12-7.89-7.875 10.5h24.51Z" clip-rule="evenodd"/>
				<path fill="#54595D" fill-rule="evenodd" d="M327.875 82.75h4.879c.826 0 1.496.671 1.496 1.497V89.5H329V91h3.754c.826 0 1.496.666 1.496 1.5V94h-13.5v-1.5c0-.828.67-1.5 1.496-1.5H326v-1.5h-5.25v-5.252c0-.827.67-1.498 1.496-1.498h4.879v-1.563a1.124 1.124 0 0 1-.35-1.92 1.126 1.126 0 1 1 1.1 1.92v1.563Zm-3 4.5A1.123 1.123 0 0 0 326 86.125a1.126 1.126 0 1 0-1.125 1.125Zm5.25 0a1.123 1.123 0 0 0 1.125-1.125 1.126 1.126 0 1 0-1.125 1.125Z" clip-rule="evenodd"/>
				<path stroke="#FC3" stroke-linecap="square" stroke-width="4" d="M184 74h158a3.998 3.998 0 0 1 4 4v107a3.995 3.995 0 0 1-1.172 2.828A3.995 3.995 0 0 1 342 189H184a3.995 3.995 0 0 1-2.828-1.172A3.995 3.995 0 0 1 180 185V78a3.997 3.997 0 0 1 4-4Z"/>
			</g>
		</g>
	</g>
	<defs>
		<filter id="filter0_d_547_45930" width="240" height="250" x="16" y="-16" color-interpolation-filters="sRGB" filterUnits="userSpaceOnUse">
			<feFlood flood-opacity="0" result="BackgroundImageFix"/>
			<feColorMatrix in="SourceAlpha" result="hardAlpha" values="0 0 0 0 0 0 0 0 0 0 0 0 0 0 0 0 0 0 127 0"/>
			<feOffset dy="4"/>
			<feGaussianBlur stdDeviation="2"/>
			<feComposite in2="hardAlpha" operator="out"/>
			<feColorMatrix values="0 0 0 0 0 0 0 0 0 0 0 0 0 0 0 0 0 0 0.25 0"/>
			<feBlend in2="BackgroundImageFix" result="effect1_dropShadow_547_45930"/>
			<feBlend in="SourceGraphic" in2="effect1_dropShadow_547_45930" result="shape"/>
		</filter>
		<filter id="filter1_d_547_45930" width="112" height="94" x="82" y="114" color-interpolation-filters="sRGB" filterUnits="userSpaceOnUse">
			<feFlood flood-opacity="0" result="BackgroundImageFix"/>
			<feColorMatrix in="SourceAlpha" result="hardAlpha" values="0 0 0 0 0 0 0 0 0 0 0 0 0 0 0 0 0 0 127 0"/>
			<feOffset dy="-1"/>
			<feGaussianBlur stdDeviation=".5"/>
			<feComposite in2="hardAlpha" operator="out"/>
			<feColorMatrix values="0 0 0 0 0 0 0 0 0 0 0 0 0 0 0 0 0 0 0.1 0"/>
			<feBlend in2="BackgroundImageFix" result="effect1_dropShadow_547_45930"/>
			<feBlend in="SourceGraphic" in2="effect1_dropShadow_547_45930" result="shape"/>
		</filter>
		<clipPath id="clip0_547_45930">
			<path fill="#fff" d="M0 0h360v216H0z"/>
		</clipPath>
	</defs>
</svg>

<svg width="360" height="216" viewBox="0 0 360 216" fill="none" xmlns="http://www.w3.org/2000/svg">
<g clip-path="url(#clip0_547_45930)">
<mask id="mask0_547_45930" style="mask-type:luminance" maskUnits="userSpaceOnUse" x="0" y="0" width="360" height="216">
<path d="M0 0H360V216H0V0Z" fill="white"/>
</mask>
<g mask="url(#mask0_547_45930)">
<mask id="mask1_547_45930" style="mask-type:luminance" maskUnits="userSpaceOnUse" x="0" y="0" width="360" height="216">
<path d="M360 0H0V216H360V0Z" fill="white"/>
</mask>
<g mask="url(#mask1_547_45930)">
<path d="M268 170H122V176H268V170Z" fill="#A2A9B1"/>
<g filter="url(#filter0_d_547_45930)">
<path d="M246 -16H26C23.791 -16 22 -13.761 22 -11V219C22 221.761 23.791 224 26 224H246C248.209 224 250 221.761 250 219V-11C250 -13.761 248.209 -16 246 -16Z" fill="#EAECF0"/>
<path d="M246 -14H26C23.239 -14 21 -11.242 21 -7.84V218.84C21 222.242 23.239 225 26 225H246C248.761 225 251 222.242 251 218.84V-7.84C251 -11.242 248.761 -14 246 -14Z" stroke="#A2A9B1" stroke-width="2" stroke-linecap="square"/>
</g>
<path d="M32.754 114H238.754V120H32.754V114ZM32.754 146H238.754V152H32.754V146ZM112.754 158H238.754V164H112.754V158ZM32.754 158H109.754V164H32.754V158ZM182.754 170H238.754V176H182.754V170ZM150.754 132H238.754V140H150.754V132ZM167.754 102H238.754V108H167.754V102ZM32.754 102H161.754V108H32.754V102ZM32.754 22H161.754V28H32.754V22ZM32.754 206H161.754V212H32.754V206ZM165.754 22H238.754V28H165.754V22ZM165.754 206H238.754V212H165.754V206ZM32.754 90H238.754V96H32.754V90ZM32.754 10H238.754V16H32.754V10ZM32.754 194H238.754V200H32.754V194ZM32.754 78H238.754V84H32.754V78ZM32.754 -2H238.754V4H32.754V-2ZM32.754 182H238.754V188H32.754V182ZM32.754 66H88.754V72H32.754V66ZM32.754 170H88.754V176H32.754V170ZM92.754 66H238.754V72H92.754V66ZM174.35 45H239V59H174.35V45Z" fill="#A2A9B1"/>
<g filter="url(#filter1_d_547_45930)">
<path d="M84 117H192V207H84V117Z" fill="white"/>
<path d="M84 183H192V207H84V183Z" fill="white"/>
<path d="M172 189H184C184.53 189 185.039 189.211 185.414 189.586C185.789 189.961 186 190.47 186 191V199C186 199.53 185.789 200.039 185.414 200.414C185.039 200.789 184.53 201 184 201H172C171.47 201 170.961 200.789 170.586 200.414C170.211 200.039 170 199.53 170 199V191C170 190.47 170.211 189.961 170.586 189.586C170.961 189.211 171.47 189 172 189Z" fill="#EAECF0" stroke="#A2A9B1" stroke-linecap="square"/>
<path fill-rule="evenodd" clip-rule="evenodd" d="M176.632 196.668L174.964 195L174.4 195.564L176.632 197.8L181.432 193L180.868 192.432L176.632 196.668Z" fill="#54595D"/>
<path d="M92 189H104C104.53 189 105.039 189.211 105.414 189.586C105.789 189.961 106 190.47 106 191V199C106 199.53 105.789 200.039 105.414 200.414C105.039 200.789 104.53 201 104 201H92C91.4696 201 90.9609 200.789 90.5858 200.414C90.2107 200.039 90 199.53 90 199V191C90 190.47 90.2107 189.961 90.5858 189.586C90.9609 189.211 91.4696 189 92 189Z" fill="#EAECF0" stroke="#A2A9B1" stroke-linecap="square"/>
<path fill-rule="evenodd" clip-rule="evenodd" d="M99.5 191.4L100.1 192L97.1 195L100.1 198L99.5 198.6L95.9 195L99.5 191.4Z" fill="#54595D"/>
<path d="M150 189H162C162.53 189 163.039 189.211 163.414 189.586C163.789 189.961 164 190.47 164 191V199C164 199.53 163.789 200.039 163.414 200.414C163.039 200.789 162.53 201 162 201H150C149.47 201 148.961 200.789 148.586 200.414C148.211 200.039 148 199.53 148 199V191C148 190.47 148.211 189.961 148.586 189.586C148.961 189.211 149.47 189 150 189Z" fill="#EAECF0" stroke="#A2A9B1" stroke-linecap="square"/>
<path fill-rule="evenodd" clip-rule="evenodd" d="M155.435 194.999L152.889 192.454L153.455 191.888L156.001 194.434L158.545 191.889L159.111 192.454L156.566 194.999L159.112 197.545L158.546 198.11L156.001 195.565L153.454 198.111L152.889 197.546L155.435 194.999Z" fill="#54595D"/>
<path d="M84 117H192V187H84V117Z" fill="white"/>
<path d="M90 157H135V161H90V157ZM90 137H186V141H90V137ZM90 164H135V168H90V164ZM99 145H135V153H99V145ZM109 175C109 174.204 109.316 173.441 109.879 172.879C110.441 172.316 111.204 172 112 172C112.796 172 113.559 172.316 114.121 172.879C114.684 173.441 115 174.204 115 175C115 175.796 114.684 176.559 114.121 177.121C113.559 177.684 112.796 178 112 178C111.204 178 110.441 177.684 109.879 177.121C109.316 176.559 109 175.796 109 175ZM90 173H106V177H90V173Z" fill="#A2A9B1"/>
<path d="M192 117H84V131H192V117Z" fill="#EAF3FF"/>
<path d="M138 145H186V177H138V145Z" fill="#EAECF0"/>
<path fill-rule="evenodd" clip-rule="evenodd" d="M155.6 156.6H168.4C168.824 156.6 169.231 156.769 169.531 157.069C169.831 157.369 170 157.776 170 158.2V167.8C170 168.224 169.831 168.631 169.531 168.931C169.231 169.232 168.824 169.4 168.4 169.4H155.6C155.176 169.4 154.769 169.232 154.469 168.931C154.169 168.631 154 168.224 154 167.8V158.2C154 157.776 154.169 157.369 154.469 157.069C154.769 156.769 155.176 156.6 155.6 156.6ZM168.536 167L165.264 162.8L162.928 165.608L159.664 161.4L155.464 167H168.536Z" fill="#A2A9B1"/>
<path fill-rule="evenodd" clip-rule="evenodd" d="M181.25 121.5H184.502C184.767 121.5 185.02 121.606 185.207 121.793C185.394 121.98 185.5 122.234 185.5 122.498V126H182V127H184.502C184.633 127 184.763 127.026 184.885 127.076C185.006 127.126 185.116 127.2 185.209 127.293C185.301 127.386 185.375 127.496 185.425 127.617C185.475 127.739 185.5 127.869 185.5 128V129H176.5V128C176.5 127.447 176.947 127 177.498 127H180V126H176.5V122.498C176.5 122.233 176.605 121.98 176.792 121.792C176.979 121.605 177.233 121.5 177.498 121.5H180.75V120.457C180.583 120.398 180.443 120.282 180.353 120.129C180.264 119.977 180.231 119.798 180.261 119.623C180.291 119.449 180.381 119.291 180.517 119.177C180.652 119.063 180.823 119 181 119C181.177 119 181.348 119.063 181.483 119.177C181.619 119.291 181.709 119.449 181.739 119.623C181.769 119.798 181.736 119.977 181.647 120.129C181.557 120.282 181.417 120.398 181.25 120.457V121.5ZM179.25 124.5C179.449 124.5 179.64 124.421 179.78 124.28C179.921 124.14 180 123.949 180 123.75C180 123.551 179.921 123.36 179.78 123.22C179.64 123.079 179.449 123 179.25 123C179.051 123 178.86 123.079 178.72 123.22C178.579 123.36 178.5 123.551 178.5 123.75C178.5 123.949 178.579 124.14 178.72 124.28C178.86 124.421 179.051 124.5 179.25 124.5ZM182.75 124.5C182.949 124.5 183.14 124.421 183.28 124.28C183.421 124.14 183.5 123.949 183.5 123.75C183.5 123.551 183.421 123.36 183.28 123.22C183.14 123.079 182.949 123 182.75 123C182.551 123 182.36 123.079 182.22 123.22C182.079 123.36 182 123.551 182 123.75C182 123.949 182.079 124.14 182.22 124.28C182.36 124.421 182.551 124.5 182.75 124.5Z" fill="#54595D"/>
<path d="M83.5 116.5H192.5V207.5H83.5V116.5Z" stroke="#A2A9B1" stroke-linecap="square"/>
</g>
<path opacity="0.5" d="M172 117.341H171.5V182.341H280.5V117.341H172Z" fill="#FFCC33" stroke="#FFCC33" stroke-linecap="square"/>
<path d="M180.5 192L344.024 191.024C345.081 191.018 346.092 190.593 346.837 189.844C347.582 189.095 348 188.081 348 187.024V76C348 74.9391 347.579 73.9217 346.828 73.1716C346.078 72.4214 345.061 72 344 72H180L83 117V182L180.5 192Z" fill="#FFCC33" fill-opacity="0.5" stroke="#FFCC33" stroke-width="2"/>
<path d="M184 74H342C343.061 74 344.078 74.4214 344.828 75.1716C345.579 75.9217 346 76.9391 346 78V185C346 186.061 345.579 187.078 344.828 187.828C344.078 188.579 343.061 189 342 189H184C182.939 189 181.922 188.579 181.172 187.828C180.421 187.078 180 186.061 180 185V78C180 76.9391 180.421 75.9217 181.172 75.1716C181.922 74.4214 182.939 74 184 74Z" fill="white"/>
<path d="M191 139H258.5V145H191V139ZM191 106H335V112H191V106ZM191 149.5H258.5V155.5H191V149.5ZM204.5 121H258.5V133H204.5V121ZM219.5 169C219.5 168.409 219.616 167.824 219.843 167.278C220.069 166.732 220.4 166.236 220.818 165.818C221.236 165.4 221.732 165.069 222.278 164.843C222.824 164.616 223.409 164.5 224 164.5C224.591 164.5 225.176 164.616 225.722 164.843C226.268 165.069 226.764 165.4 227.182 165.818C227.6 166.236 227.931 166.732 228.157 167.278C228.384 167.824 228.5 168.409 228.5 169C228.5 170.193 228.026 171.338 227.182 172.182C226.338 173.026 225.193 173.5 224 173.5C222.807 173.5 221.662 173.026 220.818 172.182C219.974 171.338 219.5 170.193 219.5 169ZM191 166H215V172H191V166Z" fill="#A2A9B1"/>
<path d="M344 76H182V97H344V76Z" fill="#EAF3FF"/>
<path d="M263 121H335V175H263V121Z" fill="#EAECF0"/>
<path fill-rule="evenodd" clip-rule="evenodd" d="M287 136H311C311.796 136 312.559 136.316 313.121 136.879C313.684 137.441 314 138.204 314 139V157C314 157.796 313.684 158.559 313.121 159.121C312.559 159.684 311.796 160 311 160H287C286.204 160 285.441 159.684 284.879 159.121C284.316 158.559 284 157.796 284 157V139C284 138.204 284.316 137.441 284.879 136.879C285.441 136.316 286.204 136 287 136ZM311.255 155.5L305.12 147.625L300.74 152.89L294.62 145L286.745 155.5H311.255Z" fill="#A2A9B1"/>
<path fill-rule="evenodd" clip-rule="evenodd" d="M327.875 82.7501H332.754C333.58 82.7501 334.25 83.4211 334.25 84.2471V89.5001H329V91.0001H332.754C333.58 91.0001 334.25 91.6661 334.25 92.5001V94.0001H320.75V92.5001C320.75 91.6721 321.42 91.0001 322.246 91.0001H326V89.5001H320.75V84.2481C320.75 83.4211 321.42 82.7501 322.246 82.7501H327.125V81.1871C326.875 81.0987 326.664 80.9246 326.53 80.6957C326.395 80.4668 326.346 80.1978 326.391 79.9362C326.436 79.6747 326.572 79.4374 326.775 79.2663C326.978 79.0953 327.235 79.0015 327.5 79.0015C327.765 79.0015 328.022 79.0953 328.225 79.2663C328.428 79.4374 328.564 79.6747 328.609 79.9362C328.654 80.1978 328.605 80.4668 328.47 80.6957C328.336 80.9246 328.125 81.0987 327.875 81.1871V82.7501ZM324.875 87.2501C325.173 87.2501 325.46 87.1316 325.67 86.9206C325.881 86.7096 326 86.4235 326 86.1251C326 85.8268 325.881 85.5406 325.67 85.3296C325.46 85.1186 325.173 85.0001 324.875 85.0001C324.577 85.0001 324.29 85.1186 324.08 85.3296C323.869 85.5406 323.75 85.8268 323.75 86.1251C323.75 86.4235 323.869 86.7096 324.08 86.9206C324.29 87.1316 324.577 87.2501 324.875 87.2501ZM330.125 87.2501C330.423 87.2501 330.71 87.1316 330.92 86.9206C331.131 86.7096 331.25 86.4235 331.25 86.1251C331.25 85.8268 331.131 85.5406 330.92 85.3296C330.71 85.1186 330.423 85.0001 330.125 85.0001C329.827 85.0001 329.54 85.1186 329.33 85.3296C329.119 85.5406 329 85.8268 329 86.1251C329 86.4235 329.119 86.7096 329.33 86.9206C329.54 87.1316 329.827 87.2501 330.125 87.2501Z" fill="#54595D"/>
<path d="M184 74H342C343.061 74 344.078 74.4214 344.828 75.1716C345.579 75.9217 346 76.9391 346 78V185C346 186.061 345.579 187.078 344.828 187.828C344.078 188.579 343.061 189 342 189H184C182.939 189 181.922 188.579 181.172 187.828C180.421 187.078 180 186.061 180 185V78C180 76.9391 180.421 75.9217 181.172 75.1716C181.922 74.4214 182.939 74 184 74Z" stroke="#FFCC33" stroke-width="4" stroke-linecap="square"/>
</g>
</g>
</g>
<defs>
<filter id="filter0_d_547_45930" x="16" y="-16" width="240" height="250" filterUnits="userSpaceOnUse" color-interpolation-filters="sRGB">
<feFlood flood-opacity="0" result="BackgroundImageFix"/>
<feColorMatrix in="SourceAlpha" type="matrix" values="0 0 0 0 0 0 0 0 0 0 0 0 0 0 0 0 0 0 127 0" result="hardAlpha"/>
<feOffset dy="4"/>
<feGaussianBlur stdDeviation="2"/>
<feComposite in2="hardAlpha" operator="out"/>
<feColorMatrix type="matrix" values="0 0 0 0 0 0 0 0 0 0 0 0 0 0 0 0 0 0 0.25 0"/>
<feBlend mode="normal" in2="BackgroundImageFix" result="effect1_dropShadow_547_45930"/>
<feBlend mode="normal" in="SourceGraphic" in2="effect1_dropShadow_547_45930" result="shape"/>
</filter>
<filter id="filter1_d_547_45930" x="82" y="114" width="112" height="94" filterUnits="userSpaceOnUse" color-interpolation-filters="sRGB">
<feFlood flood-opacity="0" result="BackgroundImageFix"/>
<feColorMatrix in="SourceAlpha" type="matrix" values="0 0 0 0 0 0 0 0 0 0 0 0 0 0 0 0 0 0 127 0" result="hardAlpha"/>
<feOffset dy="-1"/>
<feGaussianBlur stdDeviation="0.5"/>
<feComposite in2="hardAlpha" operator="out"/>
<feColorMatrix type="matrix" values="0 0 0 0 0 0 0 0 0 0 0 0 0 0 0 0 0 0 0.1 0"/>
<feBlend mode="normal" in2="BackgroundImageFix" result="effect1_dropShadow_547_45930"/>
<feBlend mode="normal" in="SourceGraphic" in2="effect1_dropShadow_547_45930" result="shape"/>
</filter>
<clipPath id="clip0_547_45930">
<rect width="360" height="216" fill="white"/>
</clipPath>
</defs>
</svg>
